source/img/icons-sprite/header-fb.svg

<svg width="22" height="20" viewBox="0 0 22 20" fill="none" xmlns="http://www.w3.org/2000/svg">
<path d="M1.77088 7.60536C4.52925 2.34461 10.1109 -0.714814 15.4005 0.143319C16.8284 0.367179 18.2887 0.889522 19.392 1.97151C20.7874 3.31468 21.5013 5.44138 21.7285 7.53074C21.9881 10.1051 22.2568 13.4558 20.8614 15.4705C19.3686 17.5972 17.0646 18.7538 14.793 19.5C13.3002 19.985 10.9547 19.7312 9.42941 19.9177C6.67105 20.2535 4.78857 19.589 2.74413 17.425C1.44607 16.0446 0.732136 14.0298 0.797039 12.0524C0.861943 10.075 0.635078 8.53811 1.99804 7.34417" fill="#DBDBDB"/>
<path d="M10.1486 17H12.7595V10.9422H14.5922L14.793 8.90752H12.7595C12.7595 8.90752 12.7595 8.14453 12.7595 7.75144C12.7595 7.26588 12.8599 7.08091 13.362 7.08091C13.7637 7.08091 14.793 7.08091 14.793 7.08091V5C14.793 5 13.2867 5 12.9854 5C11.0273 5 10.1486 5.78613 10.1486 7.31217C10.1486 8.63009 10.1486 8.93067 10.1486 8.93067H8.79297V10.9884H10.1486V17Z" fill="white"/>
</svg>

<svg width="22" height="20" fill="none" xmlns="http://www.w3.org/2000/svg"><path d="M1.77 7.605C4.53 2.345 10.11-.715 15.4.143c1.428.224 2.889.747 3.992 1.829 1.395 1.343 2.11 3.47 2.337 5.559.26 2.574.528 5.925-.868 7.94-1.492 2.126-3.796 3.283-6.068 4.029-1.493.485-3.838.231-5.364.418-2.758.335-4.64-.329-6.685-2.493C1.446 16.045.732 14.03.797 12.052c.065-1.977-.162-3.514 1.201-4.708" fill="#DBDBDB"/><path d="M10.149 17h2.61v-6.058h1.833l.201-2.034h-2.034V7.75c0-.485.1-.67.603-.67h1.431V5h-1.808c-1.958 0-2.836.786-2.836 2.312v1.619H8.793v2.057h1.356V17z" fill="#fff"/></svg>
